X:77
T:Eleanor Kane's* (reel) 
B:CRE2.181 (gan ainm)
F:file ID: cre.2/077elean_k
C:Ed Reavy
R:reel
M:C
Q:180
K:G
A|BGFG EFGA|Bgg2 edBA|G2GA BEEF|(3GFE ED EB,B,2|
G2GA B2GA|Bgg2 efga|(3bag af g2fg|ecAF G3:|
A|Bdef g2ga|bagf edBA|BGEF G3A|Bdd^c d2ef|
g2gf g2ed|(3B^cd A=c BGEF|G2BG FGAc|BGAF G3:|

%%%

